X:1
T:Joe Hill
M:4/4
L:1/4
K:C
 G| E G G G| E G G3/2 G/2| A c c B| c3| G| c c c G| B A G E| D D B3/2 B/2|\
 G3| G| G G A G| C3||
